X: 4
T:Old Black Joe, Badby 2
M:6/8
L:1/8
A:Badby
P:A(AB2)4A
K:G
P:A
|:D|G>AG FED|G>AG ABc|d>ed c2B|1AFD E2 :|2A3G2||
P:B
|:z|ddd  d2g|e2c  d2d|ddd  d2g| e2c d2c |
BcB  BAG|ABA  FED|BAG  c2B| A3  G2 :|
